X: 951
T: Swinging On a Gate
B: jims roots
M:C|
L:1/8
Q: 1/4=100
K:G
V:1 
ef | "G"gedB G2AB | "Am"cABG AGEG | "G"DGBd g2g2 | "D7"fgag fdef |
"G"gedB G2AB | "Am"cABG AGEG | "Am"cABG AGEG | "D7"DGGF "G"G2 :|
|: ef | "G"gfga bagf | "Em"gfed B2AG | "Am"EAAB cBAG | EAAB "D7"cdef |
"G"gfga bagf | "Em"gfed edBd | "Am"cABG AGEG | "D7"DGGF "G"G2 :|
% abcbook-tune_id 6298c29716393058fe9f3218


% abcbook-boost 0
% abcbook-tablature 
% abcbook-transpose 
% abcbook-lastupdated 1654178455809
% abcbook-soundfonts 
% abcbook-repeats 1


